X: 4
T: The Humours Of Glendart
R: jig
M: 6/8
L: 1/8
K: Dmaj
BAF ADD | FDD ADD | BAF ADD | FEE EFA |BAF ADD | FDF ABd | edB BAF | BEE EFA :|dfe d2B | AFA A2B | dfe def | gfe fdB |dfe d2B | AFA ABd | fed BAF | AFE E2z :|


Tune 45	Setting 12470

